telma/img/buttons/view/ZoomExtentAroundZero.svg

<?xml version="1.0" encoding="UTF-8" standalone="no"?>
<!-- Created with Inkscape (http://www.inkscape.org/) -->
<svg
   xmlns:dc="http://purl.org/dc/elements/1.1/"
   xmlns:cc="http://creativecommons.org/ns#"
   xmlns:rdf="http://www.w3.org/1999/02/22-rdf-syntax-ns#"
   xmlns:svg="http://www.w3.org/2000/svg"
   xmlns="http://www.w3.org/2000/svg"
   xmlns:xlink="http://www.w3.org/1999/xlink"
   xmlns:sodipodi="http://sodipodi.sourceforge.net/DTD/sodipodi-0.dtd"
   xmlns:inkscape="http://www.inkscape.org/namespaces/inkscape"
   width="600"
   height="600"
   id="svg2"
   sodipodi:version="0.32"
   inkscape:version="0.46"
   version="1.0"
   sodipodi:docname="ZoomExtentAroundZero.svg"
   inkscape:output_extension="org.inkscape.output.svg.inkscape"
   inkscape:export-filename="D:\Documents and Settings\Маша\Рабочий стол\TELMA.V20\Projects\Interfaces\BaseInterface\ScalePanel\images\ZoomExtentAroundZero.png"
   inkscape:export-xdpi="4.8006859"
   inkscape:export-ydpi="4.8006859">
  <defs
     id="defs4">
    <linearGradient
       inkscape:collect="always"
       id="linearGradient5886">
      <stop
         style="stop-color:#000000;stop-opacity:1;"
         offset="0"
         id="stop5888" />
      <stop
         style="stop-color:#000000;stop-opacity:0;"
         offset="1"
         id="stop5890" />
    </linearGradient>
    <linearGradient
       inkscape:collect="always"
       id="linearGradient4424">
      <stop
         style="stop-color:#000000;stop-opacity:1;"
         offset="0"
         id="stop4426" />
      <stop
         style="stop-color:#000000;stop-opacity:0;"
         offset="1"
         id="stop4428" />
    </linearGradient>
    <linearGradient
       inkscape:collect="always"
       id="linearGradient18978">
      <stop
         style="stop-color:#4db7e8;stop-opacity:1;"
         offset="0"
         id="stop18980" />
      <stop
         style="stop-color:#4db7e8;stop-opacity:0;"
         offset="1"
         id="stop18982" />
    </linearGradient>
    <linearGradient
       id="linearGradient18925">
      <stop
         style="stop-color:#0090ff;stop-opacity:1;"
         offset="0"
         id="stop18927" />
      <stop
         style="stop-color:#0090ff;stop-opacity:0;"
         offset="1"
         id="stop18929" />
    </linearGradient>
    <marker
       inkscape:stockid="Club"
       orient="auto"
       refY="0.0"
       refX="0.0"
       id="Club"
       style="overflow:visible">
      <path
         id="path3497"
         d="M -1.5971367,-7.0977635 C -3.4863874,-7.0977635 -5.0235187,-5.5606321 -5.0235187,-3.6713813 C -5.0235187,-3.0147015 -4.7851656,-2.4444556 -4.4641095,-1.9232271 C -4.5028609,-1.8911157 -4.5437814,-1.8647646 -4.5806531,-1.8299921 C -5.2030765,-2.6849849 -6.1700514,-3.2751330 -7.3077730,-3.2751330 C -9.1970245,-3.2751331 -10.734155,-1.7380016 -10.734155,0.15124914 C -10.734155,2.0404999 -9.1970245,3.5776313 -7.3077730,3.5776313 C -6.3143268,3.5776313 -5.4391540,3.1355702 -4.8137404,2.4588126 C -4.9384274,2.8137041 -5.0235187,3.1803000 -5.0235187,3.5776313 C -5.0235187,5.4668819 -3.4863874,7.0040135 -1.5971367,7.0040135 C 0.29211394,7.0040135 1.8292454,5.4668819 1.8292454,3.5776313 C 1.8292454,2.7842354 1.5136868,2.0838028 1.0600576,1.5031550 C 2.4152718,1.7663868 3.7718375,2.2973711 4.7661444,3.8340272 C 4.0279463,3.0958289 3.5540908,1.7534117 3.5540908,-0.058529361 L 2.9247554,-0.10514681 L 3.5074733,-0.12845553 C 3.5074733,-1.9403966 3.9580199,-3.2828138 4.6962183,-4.0210121 C 3.7371277,-2.5387813 2.4390549,-1.9946496 1.1299838,-1.7134486 C 1.5341802,-2.2753578 1.8292454,-2.9268556 1.8292454,-3.6713813 C 1.8292454,-5.5606319 0.29211394,-7.0977635 -1.5971367,-7.0977635 z "
         style="fill-rule:evenodd;stroke:#000000;stroke-width:0.74587913pt;marker-start:none"
         transform="scale(0.6)" />
    </marker>
    <marker
       inkscape:stockid="TriangleOutL"
       orient="auto"
       refY="0.0"
       refX="0.0"
       id="TriangleOutL"
       style="overflow:visible">
      <path
         id="path3410"
         d="M 5.77,0.0 L -2.88,5.0 L -2.88,-5.0 L 5.77,0.0 z "
         style="fill-rule:evenodd;stroke:#000000;stroke-width:1.0pt;marker-start:none"
         transform="scale(0.8)" />
    </marker>
    <marker
       inkscape:stockid="Arrow1Mend"
       orient="auto"
       refY="0.0"
       refX="0.0"
       id="Arrow1Mend"
       style="overflow:visible;">
      <path
         id="path3276"
         d="M 0.0,0.0 L 5.0,-5.0 L -12.5,0.0 L 5.0,5.0 L 0.0,0.0 z "
         style="fill-rule:evenodd;stroke:#000000;stroke-width:1.0pt;marker-start:none;"
         transform="scale(0.4) rotate(180) translate(10,0)" />
    </marker>
    <marker
       inkscape:stockid="Arrow2Lend"
       orient="auto"
       refY="0.0"
       refX="0.0"
       id="Arrow2Lend"
       style="overflow:visible;">
      <path
         id="path3288"
         style="font-size:12.0;fill-rule:evenodd;stroke-width:0.62500000;stroke-linejoin:round;"
         d="M 8.7185878,4.0337352 L -2.2072895,0.016013256 L 8.7185884,-4.0017078 C 6.9730900,-1.6296469 6.9831476,1.6157441 8.7185878,4.0337352 z "
         transform="scale(1.1) rotate(180) translate(1,0)" />
    </marker>
    <marker
       inkscape:stockid="Arrow1Lend"
       orient="auto"
       refY="0.0"
       refX="0.0"
       id="Arrow1Lend"
       style="overflow:visible;">
      <path
         id="path3270"
         d="M 0.0,0.0 L 5.0,-5.0 L -12.5,0.0 L 5.0,5.0 L 0.0,0.0 z "
         style="fill-rule:evenodd;stroke:#000000;stroke-width:1.0pt;marker-start:none;"
         transform="scale(0.8) rotate(180) translate(12.5,0)" />
    </marker>
    <linearGradient
       id="linearGradient3220">
      <stop
         style="stop-color:#ff0000;stop-opacity:1;"
         offset="0"
         id="stop3222" />
      <stop
         style="stop-color:#ff0000;stop-opacity:0;"
         offset="1"
         id="stop3224" />
    </linearGradient>
    <linearGradient
       id="linearGradient3253">
      <stop
         style="stop-color:#ff0000;stop-opacity:1;"
         offset="0"
         id="stop3255" />
      <stop
         style="stop-color:#ff0000;stop-opacity:0;"
         offset="1"
         id="stop3257" />
    </linearGradient>
    <linearGradient
       id="linearGradient4618">
      <stop
         style="stop-color:#b472ff;stop-opacity:0.66666669;"
         offset="0"
         id="stop4620" />
      <stop
         style="stop-color:#ffffff;stop-opacity:0;"
         offset="1"
         id="stop4622" />
    </linearGradient>
    <linearGradient
       id="linearGradient3176">
      <stop
         id="stop3178"
         offset="0"
         style="stop-color:#ff0000;stop-opacity:1;" />
      <stop
         id="stop3180"
         offset="1"
         style="stop-color:#00d63b;stop-opacity:0;" />
    </linearGradient>
    <linearGradient
       id="linearGradient3170">
      <stop
         style="stop-color:#ff0000;stop-opacity:1;"
         offset="0"
         id="stop3172" />
      <stop
         style="stop-color:#00d63b;stop-opacity:0;"
         offset="1"
         id="stop3174" />
    </linearGradient>
    <linearGradient
       id="linearGradient3164">
      <stop
         id="stop3166"
         offset="0"
         style="stop-color:#ff0000;stop-opacity:1;" />
      <stop
         id="stop3168"
         offset="1"
         style="stop-color:#00d63b;stop-opacity:0;" />
    </linearGradient>
    <linearGradient
       id="linearGradient5422">
      <stop
         style="stop-color:#ff0000;stop-opacity:1;"
         offset="0"
         id="stop5424" />
      <stop
         style="stop-color:#00d63b;stop-opacity:0;"
         offset="1"
         id="stop5426" />
    </linearGradient>
    <inkscape:perspective
       sodipodi:type="inkscape:persp3d"
       inkscape:vp_x="0 : 526.18109 : 1"
       inkscape:vp_y="6.1230318e-14 : 1000 : 0"
       inkscape:vp_z="744.09448 : 526.18109 : 1"
       inkscape:persp3d-origin="372.04724 : 350.78739 : 1"
       id="perspective10" />
    <radialGradient
       inkscape:collect="always"
       xlink:href="#linearGradient18978"
       id="radialGradient18984"
       cx="291.68225"
       cy="262.17429"
       fx="291.68225"
       fy="262.17429"
       r="85.073784"
       gradientTransform="matrix(-1.448435,1.2351902e-2,-1.400983e-2,-1.7841549,717.83804,724.92059)"
       gradientUnits="userSpaceOnUse" />
    <radialGradient
       inkscape:collect="always"
       xlink:href="#linearGradient4424"
       id="radialGradient4432"
       cx="186.34766"
       cy="154.33182"
       fx="186.34766"
       fy="154.33182"
       r="26.308594"
       gradientTransform="matrix(1,0,0,0.5463994,0,70.004999)"
       gradientUnits="userSpaceOnUse" />
    <linearGradient
       inkscape:collect="always"
       xlink:href="#linearGradient5886"
       id="linearGradient5892"
       x1="439.13489"
       y1="478.63818"
       x2="516.64374"
       y2="405.16534"
       gradientUnits="userSpaceOnUse" />
  </defs>
  <sodipodi:namedview
     id="base"
     pagecolor="#ffffff"
     bordercolor="#666666"
     borderopacity="1.0"
     gridtolerance="10000"
     guidetolerance="10"
     objecttolerance="10"
     inkscape:pageopacity="0.0"
     inkscape:pageshadow="2"
     inkscape:zoom="0.90509668"
     inkscape:cx="-292.77128"
     inkscape:cy="316.71256"
     inkscape:document-units="px"
     inkscape:current-layer="layer1"
     showgrid="false"
     showguides="true"
     inkscape:showpageshadow="false"
     inkscape:window-width="1029"
     inkscape:window-height="676"
     inkscape:window-x="27"
     inkscape:window-y="35"
     showborder="true">
    <inkscape:grid
       type="xygrid"
       visible="true"
       enabled="true"
       id="grid2393" />
  </sodipodi:namedview>
  <metadata
     id="metadata7">
    <rdf:RDF>
      <cc:Work
         rdf:about="">
        <dc:format>image/svg+xml</dc:format>
        <dc:type
           rdf:resource="http://purl.org/dc/dcmitype/StillImage" />
      </cc:Work>
    </rdf:RDF>
  </metadata>
  <g
     inkscape:label="Layer 1"
     inkscape:groupmode="layer"
     id="layer1">
    <rect
       ry="90"
       rx="90"
       y="10.602222"
       x="11.58176"
       height="576.74463"
       width="577.10175"
       id="rect2390"
       style="opacity:1;fill:none;fill-opacity:1;stroke:none;stroke-width:1;stroke-linecap:round;stroke-linejoin:miter;stroke-miterlimit:4;stroke-dasharray:none;stroke-dashoffset:0;stroke-opacity:1"
       inkscape:export-filename="P:\TELMA.V20\telma.v20_10_11\Projects\Interfaces\BaseInterface\panels\ScalePanel\images\ZoomExtentAroundZero.png"
       inkscape:export-xdpi="4.9935446"
       inkscape:export-ydpi="4.9935446" />
    <rect
       style="opacity:1;fill:none;fill-opacity:0;stroke:none;stroke-width:23.16965866000000000;stroke-linecap:round;stroke-linejoin:miter;stroke-miterlimit:4;stroke-dasharray:none;stroke-dashoffset:0;stroke-opacity:1"
       id="rect5264"
       width="577.10175"
       height="576.74463"
       x="11.581718"
       y="11.612374"
       rx="90"
       ry="90"
       inkscape:export-filename="D:\Documents and Settings\Маша\Рабочий стол\TELMA.V20\Projects\Interfaces\BaseInterface\ScalePanel\images\ZoomExtentAroundZero.png"
       inkscape:export-xdpi="4.8006859"
       inkscape:export-ydpi="4.8006859" />
  </g>
  <g
     inkscape:groupmode="layer"
     id="layer4"
     inkscape:label="Белок"
     sodipodi:insensitive="true">
    <path
       sodipodi:type="arc"
       style="opacity:1;fill:#ffffff;fill-opacity:1;stroke:#000000;stroke-width:0.4523254;stroke-linecap:round;stroke-linejoin:miter;stroke-miterlimit:4;stroke-dasharray:none;stroke-dashoffset:0;stroke-opacity:1"
       id="path4404"
       sodipodi:cx="-231.25"
       sodipodi:cy="392.96875"
       sodipodi:rx="81.25"
       sodipodi:ry="85.15625"
       d="M -150,392.96875 A 81.25,85.15625 0 1 1 -312.5,392.96875 A 81.25,85.15625 0 1 1 -150,392.96875 z"
       transform="matrix(2.2633182,0,0,2.1594962,778.20484,-606.55205)" />
  </g>
  <g
     inkscape:groupmode="layer"
     id="layer3"
     inkscape:label="Узел"
     sodipodi:insensitive="true" />
  <g
     inkscape:groupmode="layer"
     id="layer6"
     inkscape:label="Линза"
     sodipodi:insensitive="true">
    <path
       sodipodi:type="arc"
       style="opacity:0.81343282;fill:url(#radialGradient18984);fill-opacity:1;stroke:#000000;stroke-width:0;stroke-linecap:round;stroke-linejoin:miter;stroke-miterlimit:4;stroke-dasharray:none;stroke-dashoffset:0;stroke-opacity:1"
       id="path18960"
       sodipodi:cx="314.88348"
       sodipodi:cy="298.37476"
       sodipodi:rx="85.073784"
       sodipodi:ry="88.388351"
       d="M 399.95727,298.37476 A 85.073784,88.388351 0 1 1 229.8097,298.37476 A 85.073784,88.388351 0 1 1 399.95727,298.37476 z"
       transform="matrix(2.1451967,0,0,2.0647517,-422.12893,-370.74627)" />
  </g>
  <g
     inkscape:groupmode="layer"
     id="layer5"
     inkscape:label="Блик"
     sodipodi:insensitive="true">
    <path
       style="fill:#ffffff;fill-opacity:1;fill-rule:evenodd;stroke:none;stroke-width:1.20465982px;stroke-linecap:butt;stroke-linejoin:miter;stroke-opacity:1"
       d="M 198.08432,124.45023 L 198.08432,124.45023 C 187.33374,131.55709 176.83443,140.03942 168.70946,149.25123 C 160.58451,158.46303 147.45958,169.80063 140.58462,181.84684 C 133.70965,193.89304 125.5847,207.35644 124.9597,215.15104 C 124.3347,222.94564 122.38389,225.24339 128.00887,230.91218 C 133.63383,236.58098 135.66047,235.61448 142.45961,234.28325 C 150.83649,232.64311 154.95955,226.19514 156.83453,222.23705 C 159.08666,217.48281 157.45952,213.73384 161.8345,204.52205 C 166.20947,195.31024 165.58449,191.76724 173.70945,179.01244 C 181.8344,166.25763 180.28111,169.55748 188.40607,161.76288 C 196.53102,153.96827 191.28518,157.84041 205.58427,148.54263 C 220.39231,138.91393 220.85076,139.51393 227.45915,133.66203 C 232.53496,129.16727 229.17122,122.51613 224.95916,118.07282 C 222.3613,115.33233 217.56644,114.82334 211.83423,117.36422 C 204.26707,120.71847 199.85207,123.36214 198.08432,124.45023 z"
       id="path4413"
       sodipodi:nodetypes="ccsssssssssssssc" />
  </g>
  <g
     inkscape:groupmode="layer"
     id="layer2"
     inkscape:label="Линия"
     sodipodi:insensitive="true">
    <path
       sodipodi:type="arc"
       style="opacity:1;fill:none;fill-opacity:1;stroke:#000000;stroke-width:19.72408867;stroke-linecap:round;stroke-linejoin:miter;stroke-miterlimit:4;stroke-dasharray:none;stroke-dashoffset:0;stroke-opacity:1"
       id="path18921"
       sodipodi:cx="225.7691"
       sodipodi:cy="234.32477"
       sodipodi:rx="120.71323"
       sodipodi:ry="121.21831"
       d="M 346.48233,234.32477 A 120.71323,121.21831 0 1 1 105.05588,234.32477 A 120.71323,121.21831 0 1 1 346.48233,234.32477 z"
       transform="matrix(1.5241615,0,0,1.5178108,-94.104532,-109.84171)" />
    <path
       style="fill:none;fill-rule:evenodd;stroke:url(#linearGradient5892);stroke-width:60;stroke-linecap:round;stroke-linejoin:miter;stroke-miterlimit:4;stroke-dasharray:none;stroke-opacity:1"
       d="M 402.84362,402.16408 L 510.39809,517.54723"
       id="path18923" />
  </g>
  <g
     inkscape:groupmode="layer"
     id="layer7"
     inkscape:label="Прицел"
     style="display:inline"
     sodipodi:insensitive="true">
    <path
       sodipodi:type="arc"
       style="opacity:1;fill:none;fill-opacity:1;stroke:#000000;stroke-width:29.04122925;stroke-linecap:round;stroke-linejoin:miter;stroke-miterlimit:4;stroke-dasharray:none;stroke-dashoffset:0;stroke-opacity:1"
       id="path2486"
       sodipodi:cx="266.82233"
       sodipodi:cy="267.43884"
       sodipodi:rx="48.061165"
       sodipodi:ry="51.928154"
       d="M 314.88349,267.43884 A 48.061165,51.928154 0 1 1 218.76116,267.43884 A 48.061165,51.928154 0 1 1 314.88349,267.43884 z"
       transform="matrix(0.6442609,0,0,0.5962841,79.624851,86.385028)" />
    <path
       style="fill:none;fill-rule:evenodd;stroke:#000000;stroke-width:20;stroke-linecap:round;stroke-linejoin:miter;stroke-miterlimit:4;stroke-dasharray:none;stroke-opacity:1"
       d="M 251.69654,280.77686 L 251.69654,328.51962"
       id="path3289" />
    <path
       id="path3291"
       d="M 252.02015,167.70813 L 252.02015,211.60025"
       style="fill:none;fill-rule:evenodd;stroke:#000000;stroke-width:20;stroke-linecap:round;stroke-linejoin:miter;stroke-miterlimit:4;stroke-dasharray:none;stroke-opacity:1" />
    <path
       style="fill:none;fill-rule:evenodd;stroke:#000000;stroke-width:20;stroke-linecap:round;stroke-linejoin:miter;stroke-miterlimit:4;stroke-dasharray:none;stroke-opacity:1"
       d="M 335.6084,246.7132 L 286.13254,246.7132"
       id="path3293" />
    <path
       id="path3295"
       d="M 217.02149,247.26563 L 163.50278,247.26563"
       style="fill:none;fill-rule:evenodd;stroke:#000000;stroke-width:20;stroke-linecap:round;stroke-linejoin:miter;stroke-miterlimit:4;stroke-dasharray:none;stroke-opacity:1" />
    <rect
       style="opacity:1;fill:none;fill-opacity:1;stroke:#000000;stroke-width:20;stroke-linecap:round;stroke-linejoin:miter;stroke-miterlimit:4;stroke-dasharray:none;stroke-dashoffset:0;stroke-opacity:1"
       id="rect3317"
       width="225.20708"
       height="215.26338"
       x="137.57997"
       y="138.88094"
       rx="0"
       ry="0" />
  </g>
</svg>

<svg xmlns="http://www.w3.org/2000/svg" width="600" height="600"><defs><radialGradient id="A" cx="291.682" cy="262.174" fx="291.682" fy="262.174" r="85.074" gradientTransform="matrix(-1.448435,1.2351902e-2,-1.400983e-2,-1.7841549,717.83804,724.92059)" gradientUnits="userSpaceOnUse"><stop offset="0" stop-color="#4db7e8"/><stop offset="1" stop-color="#4db7e8" stop-opacity="0"/></radialGradient><linearGradient id="B" x1="439.135" y1="478.638" x2="516.644" y2="405.165" gradientUnits="userSpaceOnUse"><stop offset="0"/><stop offset="1" stop-opacity="0"/></linearGradient></defs><path d="M438.707 242.062c0 101.562-82.332 183.895-183.895 183.895S70.918 343.625 70.918 242.062 153.25 58.168 254.813 58.168 438.707 140.5 438.707 242.062z" fill="#fff" stroke="#000"/><path d="M 399.95727,298.37476 A 85.073784,88.388351 0 1 1 229.8097,298.37476 A 85.073784,88.388351 0 1 1 399.95727,298.37476 z" transform="matrix(2.145197 0 0 2.064752 -422.12893 -370.74627)" opacity=".813" fill="url(#A)"/><path d="M198.084 124.45h0c-10.751 7.107-21.25 15.589-29.375 24.801s-21.25 20.549-28.125 32.596-15 25.51-15.625 33.304-2.576 10.092 3.049 15.761 7.652 4.702 14.451 3.371c8.377-1.64 12.5-8.088 14.375-12.046 2.252-4.754.625-8.503 5-17.715s3.75-12.755 11.875-25.51 6.572-9.455 14.697-17.25 2.879-3.922 17.178-13.22c14.808-9.629 15.266-9.029 21.875-14.881 5.076-4.495 1.712-11.146-2.5-15.589-2.598-2.74-7.393-3.249-13.125-.709-7.567 3.354-11.982 5.998-13.75 7.086z" fill="#fff" fill-rule="evenodd"/><g fill="none"><path d="M433.99 245.819A183.99 183.99 0 0 1 157.996 405.2a183.99 183.99 0 0 1 0-318.762A183.99 183.99 0 0 1 433.99 245.819z" stroke="#000" stroke-width="30"/><path d="M402.844 402.164l107.554 115.383" stroke="url(#B)" stroke-width="60" stroke-linecap="round"/><g stroke="#000"><path d="M282.492 245.855c0 17.101-13.863 30.964-30.964 30.964s-30.964-13.863-30.964-30.964 13.863-30.964 30.964-30.964 30.964 13.863 30.964 30.964z" stroke-width="18.027"/><path d="M251.697 280.777v47.743m.323-160.812V211.6m83.588 35.113h-49.476m-69.111.553h-53.519" stroke-linecap="round" stroke-width="20"/><path d="M137.58 138.881h225.207v215.263H137.58z" stroke-width="20"/></g></g></svg>
